X: 21181
T: GAVOT DE VESTRIS
Q: "Moderato"
%R: gavotte
B: "Edinburgh Repository of Music" v.2 p.118
F: http://digital.nls.uk/special-collections-of-printed-music/pageturner.cfm?id=87776133
Z: 2015 John Chambers <jc:trillian.mit.edu>
M: 2/4
L: 1/8
K: F
|:"_F."\
f2 f2 | f3 "_P."(g/a/) |\
(ba)gf | {f}edec |\
"_F."f2 f2 | f3 "_P."g/a/ |\
{a}gfed | c4 :|\
|:\
g2 ~y b>g | e2 e2 |
f2 ~y a>f | cc/d/ _e/=e/f/^f/ |\
g2 b/a/b/g/ | e2 e2 |\
f2 ~y af | c2 c2 |\
cege | bgfe |\
f2 f2 | "_Fine."f4 H:|
K: Bb
|:"_F."\
b2 b2 | b3 c'/d'/ |\
"_P."(e'd')c'b | {b}agaf |\
"_F."b2 b2 | b3c'/d'/ |\
"_P"c'bag | f4 :|\
|:\
"_P."c'2 ~y e'>c' | a2 a2 |
b2 ~y d'b | (=e/f/^f/g/ ^g/a/b/=b/) |\
\
c'2 (e'/d'/e'/).c'/ | a2 a2 |\
b2 ~y d'>b | f2 f2 |\
fac'a | e'c'af |\
b2 b2 | b4 :|

%%sep 2 1 500
%%sep 1 1 500

